public/icon/bulb.svg

<svg width="20" height="20" viewBox="0 0 20 20" fill="none" xmlns="http://www.w3.org/2000/svg">
<path d="M14.2418 2.34977C13.4754 1.71943 12.5779 1.26813 11.6148 1.02881C10.6518 0.789488 9.64745 0.76818 8.67511 0.966439C7.38043 1.22796 6.1926 1.86817 5.26235 2.80584C4.3321 3.74351 3.70134 4.93638 3.45011 6.23311C3.26665 7.20537 3.29999 8.20615 3.54775 9.16405C3.79551 10.122 4.25158 11.0134 4.88345 11.7748C5.46985 12.4365 5.80598 13.2827 5.83345 14.1664V16.6664C5.83345 17.3295 6.09684 17.9654 6.56568 18.4342C7.03452 18.903 7.67041 19.1664 8.33345 19.1664H11.6668C12.3298 19.1664 12.9657 18.903 13.4345 18.4342C13.9034 17.9654 14.1668 17.3295 14.1668 16.6664V14.3248C14.1947 13.3491 14.5532 12.4118 15.1834 11.6664C16.2877 10.3004 16.8083 8.55379 16.6319 6.80613C16.4556 5.05847 15.5967 3.45101 14.2418 2.33311V2.34977ZM12.5001 16.6664C12.5001 16.8875 12.4123 17.0994 12.256 17.2557C12.0998 17.412 11.8878 17.4998 11.6668 17.4998H8.33345C8.11243 17.4998 7.90047 17.412 7.74419 17.2557C7.58791 17.0994 7.50011 16.8875 7.50011 16.6664V15.8331H12.5001V16.6664ZM13.8918 10.6331C13.0539 11.6269 12.565 12.8681 12.5001 14.1664H10.8334V11.6664C10.8334 11.4454 10.7456 11.2335 10.5894 11.0772C10.4331 10.9209 10.2211 10.8331 10.0001 10.8331C9.7791 10.8331 9.56714 10.9209 9.41086 11.0772C9.25458 11.2335 9.16678 11.4454 9.16678 11.6664V14.1664H7.50011C7.47813 12.8899 7.0059 11.6621 6.16678 10.6998C5.61315 10.0364 5.24086 9.24096 5.08621 8.39089C4.93156 7.54083 4.99982 6.6652 5.28435 5.84938C5.56888 5.03356 6.05997 4.30539 6.70972 3.73588C7.35947 3.16636 8.14571 2.77494 8.99178 2.59977C9.71891 2.45006 10.4702 2.46414 11.1913 2.641C11.9123 2.81785 12.5848 3.15304 13.1602 3.62223C13.7355 4.09142 14.1991 4.68284 14.5173 5.35354C14.8356 6.02424 15.0005 6.75739 15.0001 7.49977C15.0063 8.64132 14.6144 9.74933 13.8918 10.6331Z" fill="black"/>
</svg>

<svg width="20" height="20" fill="none" xmlns="http://www.w3.org/2000/svg"><path d="M14.242 2.35A6.666 6.666 0 008.675.966 6.667 6.667 0 003.45 6.233a6.725 6.725 0 001.433 5.542c.587.662.923 1.508.95 2.391v2.5a2.5 2.5 0 002.5 2.5h3.334a2.5 2.5 0 002.5-2.5v-2.341a4.308 4.308 0 011.016-2.659 6.666 6.666 0 00-.941-9.333v.017zM12.5 16.666a.833.833 0 01-.833.834H8.333a.833.833 0 01-.833-.834v-.833h5v.833zm1.392-6.033a5.942 5.942 0 00-1.392 3.533h-1.667v-2.5a.834.834 0 00-1.666 0v2.5H7.5A5.417 5.417 0 006.167 10.7a5 5 0 012.825-8.1A5 5 0 0115 7.5a4.908 4.908 0 01-1.108 3.133z" fill="#000"/></svg>
